X:59
T:Wrights Reel. Ru2.059
%%VWML:RutherfordVol2-2249-p30-0
F:http://www.vwml.org/record/RutherfordVol2/2249/p30
L:1/8
R:Reel
B:RUTHERFORD Complete Collection of 200 Country Dances Vol.2; 1759.
Z:vmp. Peter Dunk 2015
Q:1/2=80
K:F
F>GFA cdfg|afga "tr"g>fdg|fF2A cdfg|afga ff/f/ f2:|
|:f>gaf gdfc|dfcA dGGg|f>gaf gdfc|dbag ff/f/ f2|
fgaf gdfc|dfcA dGGc|AFAc f>gag|fdcA FF/F/ F2:|
W:
W:Cast off two CU: .| lead to the top & cast off :| Hands
W:round four with the 3d Cu: .| right & left at top :|
T:Crooked Kitty. Ru2.060
M:2/4
L:1/8
B:RUTHERFORD Complete Collection of 200 Country Dances Vol.2; 1759.
Z:vmp. Peter Dunk 2015
Q:1/4=120
K:C
ce2c|ge2g|fd2f|ec2G|ce2c|ge2g|
fdec|gec2::ec2e|ge2g|af2a|
geeg|ce2g|cf2a|gefd|gec2:|
W:
W:Gallop down one CU: up again and cast off.| Gallop down another Cu: up again
W:and cast off :| Hands around all six .| lead to the top foot it and cast off:|
